icon-themes/breeze_svg/cmd/sc_basicstepout.svg

<svg viewBox="0 0 16 16" xmlns="http://www.w3.org/2000/svg"><path d="m2 2v3h8v-3zm4.4375 4c-1.06609 0-1.53125.34834-1.53125 1.25v1.21875c0 .55691-.005 1.21875-.59375 1.21875h-.3125v.625h.3125c.58889 0 .59375.66184.59375 1.21875v1.21875c0 .90166.46516 1.25 1.53125 1.25v-.59375c-.71072 0-.71875-.22744-.71875-1.09375v-1.03125c0-.41546-.15096-1.0249-.75-1.28125.59904-.25635.75-.86578.75-1.28125v-1.03125c0-.86631.008-1.09375.71875-1.09375zm3.125 0v.59375c.71073 0 .71875.22744.71875 1.09375v1.03125c0 .41547.11971 1.0249.71875 1.28125-.59904.25635-.71875.86579-.71875 1.28125v1.03125c0 .86631-.008 1.09375-.71875 1.09375v.59375c1.0661 0 1.53124-.34834 1.53125-1.25v-1.21875c0-.55691.0463-1.21875.625-1.21875h.28125v-.625h-.28125c-.57874 0-.62501-.66184-.625-1.21875v-1.21875c0-.90166-.46515-1.25-1.53125-1.25z" fill="#4d4d4d"/><path d="m11 2v3l3-1.5z" fill="#f47750"/></svg>

<svg xmlns="http://www.w3.org/2000/svg" viewBox="0 0 16 16">
 <path 
     style="fill:#4d4d4d" 
     d="M 2 2 L 2 5 L 10 5 L 10 2 L 2 2 z M 6.4375 6 C 5.37141 6 4.90625 6.34834 4.90625 7.25 L 4.90625 8.46875 C 4.90625 9.02566 4.90125 9.6875 4.3125 9.6875 L 4 9.6875 L 4 10.3125 L 4.3125 10.3125 C 4.90139 10.3125 4.90625 10.97434 4.90625 11.53125 L 4.90625 12.75 C 4.90625 13.65166 5.37141 14 6.4375 14 L 6.4375 13.40625 C 5.72678 13.40625 5.71875 13.17881 5.71875 12.3125 L 5.71875 11.28125 C 5.71875 10.86579 5.56779 10.25635 4.96875 10 C 5.56779 9.74365 5.71875 9.13422 5.71875 8.71875 L 5.71875 7.6875 C 5.71875 6.82119 5.72675 6.59375 6.4375 6.59375 L 6.4375 6 z M 9.5625 6 L 9.5625 6.59375 C 10.27323 6.59375 10.28125 6.82119 10.28125 7.6875 L 10.28125 8.71875 C 10.28125 9.13422 10.40096 9.74365 11 10 C 10.40096 10.25635 10.28125 10.86579 10.28125 11.28125 L 10.28125 12.3125 C 10.28125 13.17881 10.27325 13.40625 9.5625 13.40625 L 9.5625 14 C 10.6286 14 11.09374 13.65166 11.09375 12.75 L 11.09375 11.53125 C 11.09375 10.97434 11.14005 10.3125 11.71875 10.3125 L 12 10.3125 L 12 9.6875 L 11.71875 9.6875 C 11.14001 9.6875 11.09374 9.02566 11.09375 8.46875 L 11.09375 7.25 C 11.09375 6.34834 10.6286 6 9.5625 6 z "
     />
 <path 
     style="fill:#f47750" 
     d="M 11 2 L 11 5 L 14 3.5 L 11 2 z "
     />
 </svg>
